64x64/apps/zuluMount.svg

<svg height="64" width="64" xmlns="http://www.w3.org/2000/svg"><rect fill="#d92929" height="56" rx="3" width="56" x="4" y="4"/><path d="m7 4c-1.662 0-3 1.338-3 3v1c0-1.662 1.338-3 3-3h50c1.662 0 3 1.338 3 3v-1c0-1.662-1.338-3-3-3z" fill="#f4f4f7" opacity=".1"/><path d="m4 57v1c0 1.662 1.338 3 3 3h50c1.662 0 3-1.338 3-3v-1c0 1.662-1.338 3-3 3h-50c-1.662 0-3-1.338-3-3z" opacity=".2"/><g fill="none" stroke-linecap="round" stroke-linejoin="round" stroke-width="2"><path d="m6.014 13.014h7.486l-7 8.986h8m2.5 0v-12l4.5 7 4.5-7v11.986" opacity=".2" stroke="#000" transform="matrix(2 0 0 2 0 .972)"/><path d="m12.028 26h14.972l-14 17.972h16m5 0v-24l9 14 9-14v23.972" stroke="#ff895e"/></g></svg>

<svg xmlns="http://www.w3.org/2000/svg" width="64" height="64" version="1"><rect style="fill:#d92929" width="56" height="56" x="4" y="4" rx="3" ry="3"/><path style="opacity:.1;fill:#f4f4f7" d="M7 4C5.338 4 4 5.338 4 7v1c0-1.662 1.338-3 3-3h50c1.662 0 3 1.338 3 3V7c0-1.662-1.338-3-3-3H7z"/><path style="opacity:.2" d="M4 57v1c0 1.662 1.338 3 3 3h50c1.662 0 3-1.338 3-3v-1c0 1.662-1.338 3-3 3H7c-1.662 0-3-1.338-3-3z"/><g style="opacity:.2;fill:none;stroke:#000;stroke-width:2;stroke-linecap:round;stroke-linejoin:round"><path style="stroke:#000" d="M6.014 13.014H13.5L6.5 22h8M17 22V10l4.5 7 4.5-7v11.986" transform="matrix(2 0 0 2 0 .972)"/></g><g style="fill:none;stroke:#ff895e;stroke-width:2;stroke-linecap:round;stroke-linejoin:round"><path d="M12.028 26H27L13 43.972h16M34 43.972v-24l9 14 9-14v23.972"/></g></svg>
